apps/demo-wallet/public/ton.svg

<svg width="56" height="56" viewBox="0 0 56 56" fill="none" xmlns="http://www.w3.org/2000/svg">
<g clip-path="url(#clip0_40003021_62761)">
<rect width="56" height="56" fill="#0098EA"/>
<path d="M37.5986 15.5996H18.3986C14.8986 15.5996 12.6986 19.3996 14.3986 22.4996L26.1986 42.9996C26.9986 44.2996 28.8986 44.2996 29.6986 42.9996L41.4986 22.4996C43.2986 19.3996 41.0986 15.5996 37.5986 15.5996ZM26.2986 36.7996L23.6986 31.7996L17.4986 20.6996C17.0986 19.9996 17.5986 19.0996 18.4986 19.0996H26.2986V36.7996ZM38.4986 20.6996L32.2986 31.7996L29.6986 36.7996V19.0996H37.4986C38.3986 19.0996 38.8986 19.9996 38.4986 20.6996Z" fill="white"/>
</g>
<defs>
<clipPath id="clip0_40003021_62761">
<rect width="56" height="56" fill="white"/>
</clipPath>
</defs>
</svg>

<svg xmlns="http://www.w3.org/2000/svg" xmlns:xlink="http://www.w3.org/1999/xlink" version="1.1" id="Layer_1" x="0px" y="0px" viewBox="0 0 56 56" style="enable-background:new 0 0 56 56;" xml:space="preserve">
<style type="text/css">
	.st0{fill:#0098EA;}
	.st1{fill:#FFFFFF;}
</style>
<path class="st0" d="M28,56c15.5,0,28-12.5,28-28S43.5,0,28,0S0,12.5,0,28S12.5,56,28,56z"/>
<path class="st1" d="M37.6,15.6H18.4c-3.5,0-5.7,3.8-4,6.9l11.8,20.5c0.8,1.3,2.7,1.3,3.5,0l11.8-20.5  C43.3,19.4,41.1,15.6,37.6,15.6L37.6,15.6z M26.3,36.8l-2.6-5l-6.2-11.1c-0.4-0.7,0.1-1.6,1-1.6h7.8L26.3,36.8L26.3,36.8z   M38.5,20.7l-6.2,11.1l-2.6,5V19.1h7.8C38.4,19.1,38.9,20,38.5,20.7z"/>
</svg>
